symbols/web/local_convenience_store/materialsymbolssharp/local_convenience_store_wght300grad200_20px.svg

<svg xmlns="http://www.w3.org/2000/svg" height="20" width="20"><path d="M6.583 15.083h2.605v-.937H7.521v-.75h1.667v-2.584H6.583v.938H8.25v.708H6.583Zm5.896 0h.938v-4.271h-.938V12.5h-.771v-1.688h-.937v2.626h1.708ZM2.271 17.708V9.354q-.771-.521-.896-1.312-.125-.792.146-1.542l.896-2.875q.166-.542.583-.917.417-.375 1.021-.375h11.917q.604 0 1.052.355.448.354.614.916l.834 2.896q.25.75.124 1.583-.124.834-.874 1.271v8.354Zm9.583-9.458q.458 0 .771-.281t.25-.761l-.479-3h-1.458v3q0 .417.26.73.26.312.656.312Zm-3.812 0q.396 0 .708-.312.312-.313.312-.73v-3h-1.52l-.48 2.959q-.083.541.209.812.291.271.771.271Zm-3.792 0q.354 0 .604-.292.25-.291.334-.625l.458-3.125H4.458q-.125 0-.208.063-.083.062-.125.187l-.75 2.48q-.208.604.104.958.313.354.771.354Zm11.458 0q.5 0 .782-.333.281-.334.114-.979l-.708-2.5q-.042-.126-.115-.178-.073-.052-.219-.052h-1.27l.479 3.125q.062.334.323.625.26.292.614.292ZM4.146 15.833h11.666v-5.729q.021 0-.052.011-.072.01-.093.01-.563 0-1-.208-.438-.209-.855-.605-.395.376-.864.594-.469.219-1.01.219-.584 0-1.073-.219-.49-.218-.886-.594-.333.376-.812.594-.479.219-1.042.219-.625 0-1.115-.24-.489-.239-.885-.573-.437.417-.844.615-.406.198-.969.198-.041 0-.093-.01-.052-.011-.073-.011Zm0 0h11.666Z"/></svg>

<svg xmlns="http://www.w3.org/2000/svg" height="20" width="20"><path d="M6.583 15.083H9.188V14.146H7.521V13.396H9.188V10.812H6.583V11.75H8.25V12.458H6.583ZM12.479 15.083H13.417V10.812H12.479V12.5H11.708V10.812H10.771V13.438H12.479ZM2.271 17.708V9.354Q1.5 8.833 1.375 8.042Q1.25 7.25 1.521 6.5L2.417 3.625Q2.583 3.083 3 2.708Q3.417 2.333 4.021 2.333H15.938Q16.542 2.333 16.99 2.688Q17.438 3.042 17.604 3.604L18.438 6.5Q18.688 7.25 18.562 8.083Q18.438 8.917 17.688 9.354V17.708ZM11.854 8.25Q12.312 8.25 12.625 7.969Q12.938 7.688 12.875 7.208L12.396 4.208H10.938V7.208Q10.938 7.625 11.198 7.938Q11.458 8.25 11.854 8.25ZM8.042 8.25Q8.438 8.25 8.75 7.938Q9.062 7.625 9.062 7.208V4.208H7.542L7.062 7.167Q6.979 7.708 7.271 7.979Q7.562 8.25 8.042 8.25ZM4.25 8.25Q4.604 8.25 4.854 7.958Q5.104 7.667 5.188 7.333L5.646 4.208H4.458Q4.333 4.208 4.25 4.271Q4.167 4.333 4.125 4.458L3.375 6.938Q3.167 7.542 3.479 7.896Q3.792 8.25 4.25 8.25ZM15.708 8.25Q16.208 8.25 16.49 7.917Q16.771 7.583 16.604 6.938L15.896 4.438Q15.854 4.312 15.781 4.26Q15.708 4.208 15.562 4.208H14.292L14.771 7.333Q14.833 7.667 15.094 7.958Q15.354 8.25 15.708 8.25ZM4.146 15.833H15.812V10.104Q15.833 10.104 15.76 10.115Q15.688 10.125 15.667 10.125Q15.104 10.125 14.667 9.917Q14.229 9.708 13.812 9.312Q13.417 9.688 12.948 9.906Q12.479 10.125 11.938 10.125Q11.354 10.125 10.865 9.906Q10.375 9.688 9.979 9.312Q9.646 9.688 9.167 9.906Q8.688 10.125 8.125 10.125Q7.5 10.125 7.01 9.885Q6.521 9.646 6.125 9.312Q5.688 9.729 5.281 9.927Q4.875 10.125 4.312 10.125Q4.271 10.125 4.219 10.115Q4.167 10.104 4.146 10.104ZM4.146 15.833Q4.167 15.833 4.219 15.833Q4.271 15.833 4.312 15.833Q4.875 15.833 5.281 15.833Q5.688 15.833 6.125 15.833Q6.521 15.833 7.01 15.833Q7.5 15.833 8.125 15.833Q8.688 15.833 9.167 15.833Q9.646 15.833 9.979 15.833Q10.375 15.833 10.865 15.833Q11.354 15.833 11.938 15.833Q12.479 15.833 12.948 15.833Q13.417 15.833 13.812 15.833Q14.229 15.833 14.667 15.833Q15.104 15.833 15.667 15.833Q15.688 15.833 15.76 15.833Q15.833 15.833 15.812 15.833Z"/></svg>
